X: 121006
P: Same figure.
M: 2/4
L: 1/16
K: Bm	% and D
uF2 |\
abag fgfe | dedc B2F2 |\
abag fgfe | d2c2B2 |]\
uA2 |\
vd3uA F2A2 | G2B2A2c2 |\
d3A F2A2 | Bdce d2A2 |
d3A F2A2 | G2B2A2c2 |\
d3A F2A2 | B2c2d2 |]\
uA2 |\
vd3ue f2a2 | g2f2e2d2 |\
f3e d2A2 | Bdce d2A2 |\
d3e f2a2 | g2f2e2d2 |\
f3e d2A2 | B2c2d2 :|


